public/assets/images/banner/01.svg

<svg width="201" height="26" viewBox="0 0 201 26" fill="none" xmlns="http://www.w3.org/2000/svg">
<g clip-path="url(#clip0_3180_34279)">
<path d="M25.492 9.21484H35.3136V11.2148H31.4517V22.4578H29.3281V11.2148H25.4834V9.21484H25.492ZM34.894 12.869H36.7093V14.7195H36.7436C36.8035 14.4578 36.9148 14.2055 37.0775 13.9625C37.2402 13.7195 37.4371 13.4859 37.6683 13.2896C37.8995 13.084 38.1564 12.9251 38.439 12.7943C38.7216 12.6728 39.0127 12.6074 39.3038 12.6074C39.5265 12.6074 39.6892 12.6167 39.7748 12.6261C39.8604 12.6354 39.9461 12.6541 40.0402 12.6634V14.7008C39.9032 14.6728 39.7662 14.6541 39.6207 14.6354C39.4751 14.6167 39.3381 14.6074 39.2011 14.6074C38.8757 14.6074 38.5674 14.6821 38.2763 14.8223C37.9852 14.9625 37.7368 15.1775 37.5228 15.4485C37.3087 15.7289 37.1374 16.0653 37.009 16.4765C36.8806 16.8877 36.8206 17.355 36.8206 17.8877V22.4485H34.8854V12.869H34.894ZM48.9371 22.4578H47.0361V21.1214H47.0019C46.7621 21.6074 46.411 21.9905 45.9401 22.2803C45.4691 22.57 44.9896 22.7195 44.5015 22.7195C43.3455 22.7195 42.5063 22.4111 41.9926 21.7849C41.4788 21.1588 41.2219 20.2148 41.2219 18.9532V12.869H43.1571V18.7476C43.1571 19.5887 43.3027 20.1868 43.6024 20.5326C43.8935 20.8784 44.3131 21.056 44.844 21.056C45.255 21.056 45.589 20.9905 45.863 20.8504C46.137 20.7102 46.3596 20.5326 46.5223 20.299C46.6936 20.0747 46.8135 19.7943 46.8905 19.4765C46.9676 19.1588 47.0019 18.813 47.0019 18.4391V12.8784H48.9371V22.4578ZM52.2338 19.3831C52.2937 19.9999 52.5078 20.4298 52.876 20.6821C53.2527 20.9251 53.698 21.056 54.2203 21.056C54.4002 21.056 54.6057 21.0373 54.8369 21.0092C55.0681 20.9812 55.2907 20.9158 55.4876 20.8317C55.6931 20.7476 55.8558 20.6167 55.9928 20.4485C56.1213 20.2803 56.1812 20.0653 56.1727 19.7943C56.1641 19.5233 56.0699 19.299 55.8987 19.1307C55.7274 18.9532 55.5133 18.8223 55.2479 18.7102C54.9824 18.6074 54.6827 18.5139 54.3402 18.4391C53.9977 18.3644 53.6552 18.2803 53.3041 18.1962C52.9445 18.112 52.5934 17.9999 52.2594 17.8784C51.9255 17.7569 51.6258 17.5887 51.3603 17.3737C51.0949 17.1681 50.8808 16.8971 50.7267 16.57C50.564 16.2429 50.4869 15.841 50.4869 15.355C50.4869 14.8317 50.6068 14.4018 50.838 14.0466C51.0692 13.6915 51.3689 13.4111 51.72 13.1962C52.0796 12.9812 52.4735 12.8317 52.9102 12.7382C53.3469 12.6541 53.7665 12.6074 54.1604 12.6074C54.6142 12.6074 55.0509 12.6634 55.4619 12.7662C55.873 12.869 56.2497 13.0373 56.5837 13.2803C56.9176 13.5139 57.1916 13.8223 57.4143 14.1962C57.6369 14.57 57.7739 15.0279 57.8339 15.5606H55.813C55.7188 15.056 55.5133 14.7102 55.1794 14.5419C54.8454 14.3644 54.4601 14.2803 54.0319 14.2803C53.8949 14.2803 53.7323 14.2896 53.5439 14.3176C53.3555 14.3457 53.1842 14.3924 53.013 14.4578C52.8503 14.5233 52.7133 14.6261 52.5934 14.7569C52.4821 14.8877 52.4221 15.056 52.4221 15.2709C52.4221 15.5326 52.5078 15.7382 52.6705 15.8971C52.8331 16.056 53.0472 16.1868 53.3127 16.299C53.5781 16.4018 53.8778 16.4952 54.2203 16.57C54.5628 16.6448 54.9139 16.7289 55.2736 16.813C55.6246 16.8971 55.9672 17.0092 56.3097 17.1307C56.6522 17.2522 56.9519 17.4205 57.2173 17.6354C57.4828 17.8504 57.6969 18.112 57.8595 18.4298C58.0222 18.7476 58.1079 19.1494 58.1079 19.6167C58.1079 20.1868 57.988 20.6634 57.7482 21.0653C57.5085 21.4578 57.2002 21.7849 56.8234 22.0279C56.4467 22.2709 56.0185 22.4578 55.5561 22.57C55.0937 22.6821 54.6314 22.7382 54.1775 22.7382C53.6209 22.7382 53.1072 22.6728 52.6362 22.5326C52.1652 22.3924 51.7542 22.1868 51.4117 21.9158C51.0692 21.6354 50.7952 21.2896 50.5982 20.8784C50.4013 20.4672 50.2985 19.9719 50.2814 19.4018H52.2338V19.3831ZM58.6216 12.869H60.0859V9.99054H62.0211V12.869H63.7679V14.4485H62.0211V19.57C62.0211 19.7943 62.0297 19.9812 62.0468 20.1494C62.0639 20.3083 62.1067 20.4485 62.1667 20.5606C62.2266 20.6728 62.3208 20.7569 62.4492 20.813C62.5777 20.869 62.7404 20.8971 62.963 20.8971C63.1 20.8971 63.237 20.8971 63.374 20.8877C63.511 20.8784 63.648 20.8597 63.785 20.8223V22.4578C63.571 22.4859 63.3569 22.5046 63.16 22.5326C62.9544 22.5606 62.7489 22.57 62.5349 22.57C62.0211 22.57 61.6101 22.5139 61.3018 22.4111C60.9936 22.3083 60.7452 22.1494 60.574 21.9438C60.3942 21.7382 60.2828 21.4859 60.2143 21.1775C60.1544 20.869 60.1116 20.5139 60.103 20.1214V14.4672H58.6388V12.869H58.6216ZM65.138 12.869H66.9704V14.1681H67.0047C67.2787 13.6074 67.6554 13.2148 68.1435 12.9719C68.6316 12.7289 69.1539 12.6074 69.7277 12.6074C70.4212 12.6074 71.0207 12.7382 71.5344 13.0092C72.0482 13.2709 72.4763 13.6354 72.8189 14.1027C73.1614 14.57 73.4097 15.112 73.5809 15.7289C73.7522 16.3457 73.8378 17.0092 73.8378 17.7102C73.8378 18.355 73.7608 18.9812 73.6066 19.5793C73.4525 20.1868 73.2213 20.7195 72.913 21.1868C72.6048 21.6541 72.2109 22.0186 71.7314 22.299C71.2518 22.5793 70.6953 22.7195 70.0445 22.7195C69.7619 22.7195 69.4793 22.6915 69.1968 22.6354C68.9142 22.5793 68.6402 22.4859 68.3833 22.3644C68.1264 22.2429 67.8781 22.084 67.664 21.8877C67.4414 21.6915 67.2616 21.4672 67.1074 21.2148H67.0732V25.9999H65.138V12.869ZM71.9026 17.6728C71.9026 17.2429 71.8513 16.8223 71.7485 16.4111C71.6457 15.9999 71.4916 15.6448 71.2861 15.327C71.0806 15.0092 70.8237 14.7569 70.524 14.57C70.2157 14.3831 69.8647 14.2803 69.4708 14.2803C68.6573 14.2803 68.0408 14.5887 67.6298 15.2055C67.2187 15.8223 67.0132 16.6448 67.0132 17.6728C67.0132 18.1588 67.0646 18.6074 67.1759 19.0186C67.2872 19.4298 67.4414 19.7849 67.664 20.084C67.8781 20.3831 68.135 20.6167 68.4347 20.7849C68.7344 20.9625 69.0854 21.0466 69.4793 21.0466C69.9246 21.0466 70.2928 20.9438 70.6011 20.7476C70.9093 20.5513 71.1577 20.2896 71.3546 19.9812C71.5515 19.6634 71.6971 19.3083 71.7827 18.9064C71.8598 18.5046 71.9026 18.0933 71.9026 17.6728ZM75.3192 9.21484H77.2544V11.2148H75.3192V9.21484ZM75.3192 12.869H77.2544V22.4578H75.3192V12.869ZM78.9841 9.21484H80.9193V22.4578H78.9841V9.21484ZM86.8534 22.7195C86.1512 22.7195 85.5261 22.5887 84.9781 22.3363C84.4301 22.084 83.9677 21.7289 83.5824 21.2896C83.2056 20.841 82.9145 20.3083 82.7175 19.6915C82.5206 19.0747 82.4178 18.3924 82.4178 17.6541C82.4178 16.9251 82.5206 16.2522 82.7175 15.6354C82.9145 15.0186 83.2056 14.4859 83.5824 14.0373C83.9591 13.5887 84.4301 13.2429 84.9781 12.9905C85.5261 12.7382 86.1512 12.6074 86.8534 12.6074C87.5555 12.6074 88.1806 12.7382 88.7286 12.9905C89.2767 13.2429 89.7391 13.598 90.1244 14.0373C90.5011 14.4859 90.7923 15.0186 90.9892 15.6354C91.1862 16.2522 91.2889 16.9251 91.2889 17.6541C91.2889 18.3924 91.1862 19.0747 90.9892 19.6915C90.7923 20.3083 90.5011 20.841 90.1244 21.2896C89.7476 21.7382 89.2767 22.084 88.7286 22.3363C88.1806 22.5887 87.5555 22.7195 86.8534 22.7195ZM86.8534 21.0466C87.2815 21.0466 87.6583 20.9438 87.9751 20.7476C88.2919 20.5513 88.5488 20.2896 88.7543 19.9719C88.9598 19.6541 89.1054 19.2896 89.2082 18.8877C89.3023 18.4859 89.3537 18.0747 89.3537 17.6541C89.3537 17.2429 89.3023 16.841 89.2082 16.4298C89.114 16.0186 88.9598 15.6634 88.7543 15.3457C88.5488 15.0279 88.2919 14.7756 87.9751 14.5793C87.6583 14.3831 87.2815 14.2803 86.8534 14.2803C86.4252 14.2803 86.0485 14.3831 85.7316 14.5793C85.4148 14.7756 85.1579 15.0373 84.9524 15.3457C84.7469 15.6634 84.6013 16.0186 84.4986 16.4298C84.4044 16.841 84.353 17.2429 84.353 17.6541C84.353 18.0747 84.4044 18.4859 84.4986 18.8877C84.5928 19.2896 84.7469 19.6541 84.9524 19.9719C85.1579 20.2896 85.4148 20.5513 85.7316 20.7476C86.0485 20.9532 86.4252 21.0466 86.8534 21.0466ZM91.8541 12.869H93.3183V9.99054H95.2535V12.869H97.0004V14.4485H95.2535V19.57C95.2535 19.7943 95.2621 19.9812 95.2792 20.1494C95.2963 20.3083 95.3392 20.4485 95.3991 20.5606C95.459 20.6728 95.5532 20.7569 95.6817 20.813C95.8101 20.869 95.9728 20.8971 96.1954 20.8971C96.3325 20.8971 96.4695 20.8971 96.6065 20.8877C96.7435 20.8784 96.8805 20.8597 97.0175 20.8223V22.4578C96.8034 22.4859 96.5893 22.5046 96.3924 22.5326C96.1869 22.5606 95.9814 22.57 95.7673 22.57C95.2535 22.57 94.8425 22.5139 94.5342 22.4111C94.226 22.3083 93.9777 22.1494 93.8064 21.9438C93.6266 21.7382 93.5153 21.4859 93.4468 21.1775C93.3868 20.869 93.344 20.5139 93.3354 20.1214V14.4672H91.8712V12.869H91.8541Z" fill="#050D20"/>
<path d="M23.231 9.21495H14.3599L11.6198 0L8.87111 9.21495L0 9.20561L7.18423 14.9065L4.43556 24.1121L11.6198 18.4206L18.7955 24.1121L16.0553 14.9065L23.231 9.21495Z" fill="#0F62FE"/>
<path d="M16.6722 16.9904L16.0557 14.9062L11.6201 18.4203L16.6722 16.9904Z" fill="#005128"/>
</g>
<g clip-path="url(#clip1_3180_34279)">
<path d="M127.062 5H110V22H127.062V5Z" fill="#0F62FE"/>
<path d="M145.547 5H128.484V22H145.547V5Z" fill="#0F62FE"/>
<path d="M164.031 5H146.969V22H164.031V5Z" fill="#0F62FE"/>
<path d="M182.516 5H165.453V22H182.516V5Z" fill="#0F62FE"/>
<path d="M201 5H192.469V22H201V5Z" fill="#DCDCE6"/>
<path d="M192.469 5H183.938V22H192.469V5Z" fill="#0F62FE"/>
<path d="M118.531 16.4577L121.126 15.8025L122.21 19.1316L118.531 16.4577ZM124.503 12.1546H119.935L118.531 7.86914L117.127 12.1546H112.559L116.256 14.8108L114.852 19.0962L118.548 16.44L120.823 14.8108L124.503 12.1546Z" fill="white"/>
<path d="M137.015 16.4577L139.61 15.8025L140.694 19.1316L137.015 16.4577ZM142.987 12.1546H138.419L137.015 7.86914L135.611 12.1546H131.043L134.74 14.8108L133.336 19.0962L137.033 16.44L139.308 14.8108L142.987 12.1546Z" fill="white"/>
<path d="M155.499 16.4577L158.094 15.8025L159.179 19.1316L155.499 16.4577ZM161.471 12.1546H156.904L155.499 7.86914L154.095 12.1546H149.528L153.224 14.8108L151.82 19.0962L155.517 16.44L157.792 14.8108L161.471 12.1546Z" fill="white"/>
<path d="M173.984 16.4577L176.579 15.8025L177.663 19.1316L173.984 16.4577ZM179.956 12.1546H175.388L173.984 7.86914L172.58 12.1546H168.012L171.709 14.8108L170.305 19.0962L174.002 16.44L176.277 14.8108L179.956 12.1546Z" fill="white"/>
<path d="M192.468 16.4577L195.063 15.8025L196.147 19.1316L192.468 16.4577ZM198.44 12.1546H193.872L192.468 7.86914L191.064 12.1546H186.496L190.193 14.8108L188.789 19.0962L192.486 16.44L194.761 14.8108L198.44 12.1546Z" fill="white"/>
</g>
<defs>
<clipPath id="clip0_3180_34279">
<rect width="97" height="26" fill="white"/>
</clipPath>
<clipPath id="clip1_3180_34279">
<rect width="91" height="17" fill="white" transform="translate(110 5)"/>
</clipPath>
</defs>
</svg>

<svg xmlns="http://www.w3.org/2000/svg" width="201" height="26" fill="none" viewBox="0 0 201 26"><g clip-path="url(#a)"><path fill="#050d20" d="M25.492 9.215h9.822v2h-3.862v11.243h-2.124V11.215h-3.845v-2zm9.402 3.654h1.815v1.85h.035q.089-.391.334-.756a3.26 3.26 0 0 1 1.361-1.169c.283-.121.574-.187.865-.187.222 0 .385.01.47.02.086.008.172.027.266.036v2.038a6 6 0 0 0-.42-.066 3 3 0 0 0-.419-.028c-.325 0-.634.075-.925.215-.29.14-.54.356-.753.627-.214.28-.386.616-.514 1.028q-.19.614-.188 1.41v4.561h-1.936V12.87zm14.043 9.589h-1.9V21.12h-.035a2.8 2.8 0 0 1-1.062 1.16c-.47.289-.95.439-1.438.439q-1.737.002-2.51-.935-.77-.939-.77-2.832V12.87h1.935v5.879c0 .84.146 1.439.445 1.785.292.345.711.523 1.242.523.411 0 .745-.066 1.019-.206s.497-.317.66-.551c.17-.224.29-.505.367-.822a4.4 4.4 0 0 0 .112-1.038v-5.56h1.935zm3.297-3.075c.06.617.274 1.047.642 1.3.377.242.822.373 1.344.373.18 0 .386-.019.617-.047s.454-.093.65-.177a1.25 1.25 0 0 0 .506-.384c.128-.168.188-.383.18-.654a.94.94 0 0 0-.274-.663 1.9 1.9 0 0 0-.651-.42 6 6 0 0 0-.908-.272c-.342-.075-.685-.159-1.036-.243a9 9 0 0 1-1.045-.318 3.1 3.1 0 0 1-.899-.504 2.2 2.2 0 0 1-.633-.804c-.163-.327-.24-.729-.24-1.215 0-.523.12-.953.351-1.308s.53-.636.882-.85c.36-.216.754-.365 1.19-.459a6.7 6.7 0 0 1 1.25-.13q.683.002 1.302.158a3.2 3.2 0 0 1 1.122.514c.334.234.608.542.83.916.223.374.36.832.42 1.365h-2.021c-.094-.505-.3-.85-.634-1.02a2.4 2.4 0 0 0-1.147-.26c-.137 0-.3.009-.488.037s-.36.074-.531.14a1.15 1.15 0 0 0-.42.299.76.76 0 0 0-.17.514c0 .262.085.467.247.626.163.159.377.29.643.402q.396.157.907.271c.343.075.694.159 1.054.243.35.084.693.196 1.036.318q.511.182.907.504c.266.215.48.477.642.795s.249.72.249 1.187c0 .57-.12 1.046-.36 1.448a3 3 0 0 1-.925.963c-.376.243-.804.43-1.267.542a6 6 0 0 1-1.378.168 5.4 5.4 0 0 1-1.542-.205 3.6 3.6 0 0 1-1.224-.617 3 3 0 0 1-.814-1.038c-.197-.41-.3-.906-.317-1.476h1.953zm6.388-6.514h1.464V9.991h1.935v2.878h1.747v1.58H62.02v5.121c0 .224.009.411.026.58.017.158.06.299.12.41q.09.17.282.253c.129.056.291.084.514.084.137 0 .274 0 .411-.01a2 2 0 0 0 .411-.065v1.636c-.214.028-.428.047-.625.075a5 5 0 0 1-.625.037c-.514 0-.925-.056-1.233-.159a1.6 1.6 0 0 1-.728-.467c-.18-.206-.291-.458-.36-.767a6.3 6.3 0 0 1-.111-1.056v-5.654h-1.464V12.87zm6.516 0h1.832v1.3h.035c.274-.562.65-.954 1.139-1.197a3.5 3.5 0 0 1 1.584-.365c.693 0 1.293.131 1.806.402q.77.393 1.285 1.094c.342.467.59 1.009.762 1.626q.257.928.257 1.981 0 .97-.231 1.87a5.2 5.2 0 0 1-.694 1.607 3.5 3.5 0 0 1-1.182 1.112c-.48.28-1.036.42-1.686.42q-.425 0-.848-.084a3.5 3.5 0 0 1-.814-.27 2.9 2.9 0 0 1-.719-.477 2.9 2.9 0 0 1-.557-.673h-.034V26h-1.935zm6.765 4.804q0-.645-.154-1.262a3.6 3.6 0 0 0-.463-1.084 2.44 2.44 0 0 0-.762-.757 2 2 0 0 0-1.053-.29q-1.223 0-1.841.926-.617.925-.617 2.467-.002.729.163 1.346c.111.41.265.766.488 1.065q.321.45.77.7.452.265 1.045.263c.446 0 .814-.103 1.122-.3.308-.196.557-.457.754-.766a3.3 3.3 0 0 0 .428-1.075c.077-.401.12-.813.12-1.233m3.416-8.458h1.935v2H75.32zm0 3.654h1.935v9.589H75.32zm3.665-3.654h1.935v13.243h-1.935zm7.87 13.505c-.703 0-1.328-.131-1.876-.384a4.15 4.15 0 0 1-1.396-1.046 4.7 4.7 0 0 1-.864-1.598c-.197-.617-.3-1.3-.3-2.038 0-.729.103-1.402.3-2.019.197-.616.488-1.15.864-1.598a4 4 0 0 1 1.396-1.046c.548-.253 1.173-.384 1.875-.384.703 0 1.328.131 1.876.384a4.15 4.15 0 0 1 1.395 1.046c.377.449.668.982.865 1.598s.3 1.29.3 2.02c0 .737-.103 1.42-.3 2.037a4.7 4.7 0 0 1-.865 1.598 3.95 3.95 0 0 1-1.395 1.046c-.548.253-1.174.384-1.876.384m0-1.673a2.1 2.1 0 0 0 1.121-.3 2.5 2.5 0 0 0 .78-.775c.205-.318.35-.682.453-1.084.094-.402.146-.813.146-1.234a5.4 5.4 0 0 0-.146-1.224 3.3 3.3 0 0 0-.454-1.084 2.45 2.45 0 0 0-.779-.767 2.1 2.1 0 0 0-1.122-.299c-.428 0-.804.103-1.121.3a2.55 2.55 0 0 0-.78.766 3.5 3.5 0 0 0-.453 1.084 5.4 5.4 0 0 0-.146 1.224q.002.63.146 1.234c.094.402.248.766.453 1.084s.463.58.78.776c.317.205.693.299 1.121.299m5-8.178h1.464V9.991h1.936v2.878H97v1.58h-1.746v5.121c0 .224.008.411.025.58.017.158.06.299.12.41q.09.17.283.253c.128.056.29.084.513.084.138 0 .275 0 .412-.01.136-.009.273-.027.41-.065v1.636c-.214.028-.428.047-.625.075a5 5 0 0 1-.625.037c-.513 0-.924-.056-1.233-.159a1.6 1.6 0 0 1-.728-.467c-.18-.206-.29-.458-.36-.767a6 6 0 0 1-.11-1.056v-5.654H91.87V12.87z"/><path fill="#0f62fe" d="M23.231 9.215H14.36L11.62 0 8.87 9.215 0 9.205l7.184 5.701-2.748 9.206 7.184-5.691 7.176 5.691-2.74-9.205z"/><path fill="#005128" d="m16.672 16.99-.616-2.084-4.436 3.514z"/></g><g clip-path="url(#b)"><path fill="#0f62fe" d="M127.062 5H110v17h17.062zm18.485 0h-17.063v17h17.063zm18.484 0h-17.062v17h17.062zm18.485 0h-17.063v17h17.063z"/><path fill="#dcdce6" d="M201 5h-8.531v17H201z"/><path fill="#0f62fe" d="M192.469 5h-8.531v17h8.531z"/><path fill="#fff" d="m118.531 16.458 2.595-.655 1.084 3.329zm5.972-4.303h-4.568l-1.404-4.286-1.404 4.286h-4.568l3.697 2.656-1.404 4.285 3.696-2.656 2.275-1.63zm12.512 4.303 2.595-.655 1.084 3.329zm5.972-4.303h-4.568l-1.404-4.286-1.404 4.286h-4.568l3.697 2.656-1.404 4.285 3.697-2.656 2.275-1.63zm12.512 4.303 2.595-.655 1.085 3.329zm5.972-4.303h-4.567l-1.405-4.286-1.404 4.286h-4.567l3.696 2.656-1.404 4.285 3.697-2.656 2.275-1.63zm12.513 4.303 2.595-.655 1.084 3.329zm5.972-4.303h-4.568l-1.404-4.286-1.404 4.286h-4.568l3.697 2.656-1.404 4.285 3.697-2.656 2.275-1.63zm12.512 4.303 2.595-.655 1.084 3.329zm5.972-4.303h-4.568l-1.404-4.286-1.404 4.286h-4.568l3.697 2.656-1.404 4.285 3.697-2.656 2.275-1.63z"/></g><defs><clipPath id="a"><path fill="#fff" d="M0 0h97v26H0z"/></clipPath><clipPath id="b"><path fill="#fff" d="M110 5h91v17h-91z"/></clipPath></defs></svg>
